svgs/light/shower.svg

<svg xmlns="http://www.w3.org/2000/svg" viewBox="0 0 512 512"><!-- Font Awesome Pro 6.0.0-alpha2 by @fontawesome - https://fontawesome.com License - https://fontawesome.com/license (Commercial License) --><path d="M347.312 100.688C341.062 94.438 330.937 94.438 324.688 100.688L314.234 111.141L295.906 92.813C261.381 58.287 207.631 55.102 169.26 82.635L143.188 56.562C127.344 40.719 106.281 32 83.875 32C37.625 32 0 69.625 0 115.875V464C0 472.844 7.156 480 16 480S32 472.844 32 464V115.875C32 87.281 55.266 64 83.875 64C97.734 64 110.766 69.406 120.563 79.188L146.602 105.227C134.668 121.811 128 141.523 128 162.344C128 188.625 138.234 213.344 156.812 231.906L175.141 250.234L164.688 260.688C158.438 266.938 158.438 277.063 164.688 283.312C167.812 286.438 171.906 288 176 288S184.188 286.438 187.312 283.312L347.312 123.312C353.562 117.062 353.562 106.938 347.312 100.688ZM197.766 227.609L179.438 209.281C166.906 196.75 160 180.094 160 162.344C160 144.625 166.906 127.969 179.438 115.438C205.297 89.594 247.391 89.531 273.281 115.438L291.609 133.766L197.766 227.609ZM296 400C282.746 400 272 410.744 272 424C272 437.254 282.746 448 296 448S320 437.254 320 424C320 410.744 309.254 400 296 400ZM352 264C352 250.744 341.254 240 328 240S304 250.744 304 264C304 277.254 314.746 288 328 288S352 277.254 352 264ZM288 328C288 314.744 277.254 304 264 304S240 314.744 240 328C240 341.254 250.746 352 264 352S288 341.254 288 328ZM424 272C410.746 272 400 282.744 400 296C400 309.254 410.746 320 424 320S448 309.254 448 296C448 282.744 437.254 272 424 272ZM488 208C474.746 208 464 218.744 464 232C464 245.254 474.746 256 488 256S512 245.254 512 232C512 218.744 501.254 208 488 208ZM416 200C416 186.744 405.254 176 392 176S368 186.744 368 200C368 213.254 378.746 224 392 224S416 213.254 416 200ZM360 336C346.746 336 336 346.744 336 360C336 373.254 346.746 384 360 384S384 373.254 384 360C384 346.744 373.254 336 360 336Z"/></svg>

<svg xmlns="http://www.w3.org/2000/svg" viewBox="0 0 512 512"><!--! Font Awesome Pro 6.3.0 by @fontawesome - https://fontawesome.com License - https://fontawesome.com/license (Commercial License) Copyright 2023 Fonticons, Inc. --><path d="M347.3 100.7c-6.25-6.25-16.38-6.25-22.62 0l-10.45 10.45l-18.33-18.33c-34.53-34.53-88.28-37.71-126.6-10.18L143.2 56.56C127.3 40.72 106.3 32 83.88 32C37.63 32 0 69.63 0 115.9V464C0 472.8 7.156 480 16 480S32 472.8 32 464V115.9C32 87.28 55.27 64 83.88 64c13.86 0 26.89 5.406 36.69 15.19l26.04 26.04C134.7 121.8 128 141.5 128 162.3c0 26.28 10.23 51 28.81 69.56l18.33 18.33L164.7 260.7c-6.25 6.25-6.25 16.38 0 22.62C167.8 286.4 171.9 288 176 288s8.188-1.562 11.31-4.688l160-160C353.6 117.1 353.6 106.9 347.3 100.7zM197.8 227.6L179.4 209.3C166.9 196.8 160 180.1 160 162.3c0-17.72 6.906-34.38 19.44-46.91c25.86-25.84 67.95-25.91 93.84 0l18.33 18.33L197.8 227.6zM296 400c-13.25 0-24 10.74-24 24c0 13.25 10.75 24 24 24S320 437.3 320 424C320 410.7 309.3 400 296 400zM352 264c0-13.26-10.75-24-24-24S304 250.7 304 264C304 277.3 314.7 288 328 288S352 277.3 352 264zM288 328c0-13.26-10.75-24-24-24S240 314.7 240 328c0 13.25 10.75 24 24 24S288 341.3 288 328zM424 272c-13.25 0-24 10.74-24 24c0 13.25 10.75 24 24 24S448 309.3 448 296C448 282.7 437.3 272 424 272zM488 208c-13.25 0-24 10.74-24 24C464 245.3 474.7 256 488 256S512 245.3 512 232C512 218.7 501.3 208 488 208zM416 200c0-13.26-10.75-24-24-24S368 186.7 368 200C368 213.3 378.7 224 392 224S416 213.3 416 200zM360 336c-13.25 0-24 10.74-24 24c0 13.25 10.75 24 24 24S384 373.3 384 360C384 346.7 373.3 336 360 336z"/></svg>
